X:1
T:Rimsky-Korsakov Harmonic Exercises,
T:Altered Chords (3)
T:Rimsky-Korsakov Harmonic Exercises, Altered Chords (3) 
T:"Practical Manual of Harmony" (1885)
T:Examples by Rimsky-Korsakov
%%score { ( 1 2 5 ) | ( 3 4 ) }
L:1/8
Q:1/4=100
M:4/4
K:C
V:1 treble nm="Piano" snm="Pno."
V:2 treble 
V:5 treble 
V:3 bass 
V:4 bass 
V:1
"""^Augmented triad""^This chord occurs when the chromatic raising of the fifth in a major triad\nor when the chromatic lowering of the root in a minor triad.\n""_C:" (c4-"" c4 | %1
"" c4) x4 |]"" (c4-"" c4 |"" c4) x4 |]"" (E4-"" E4 |"" E4) x4 |]"" (E4-"" E4 |"" E4) x4 |] %8
[M:3/1]""[Q:1/2=110]"^Augmented triad may appear as an auxiliary chord (including in the inversions).""_C:" (e8"" ^d8"" !breath!e8) |] %9
"" (e8"" e8"" !breath!e8) |]"" (g8"" g8"" !breath!g8) |]"" (c8"" B8"" !breath!c8) |] %12
[M:4/4]""[Q:1/4=100]"^Dominant seventh augmented fifth chord""^This chord exists only in a major, because in a minor it is not possible\nto chromatically raise the second degree of the scale.\n""_C:" (d4"" ^d4 | %13
"" e4) x4 |]"" (d4"" ^d4 |"" e4) x4 |]"" (d4"" ^d4 |"" e4) x4 |]"" (d4"" ^d4 |"" e4) x4 |] %20
[M:3/1]""[Q:1/2=100]"^You can use a dominant seventh augmented fifth chord as an auxiliary chord.\nIt can also be preceded by a triad or a sixth chord of the fourth degree of the scale.\n""_C:" (e8"" ^d8"" !breath!e8) |] %21
"" (e8"" ^d8"" !breath!e8) |]"" (f8"" ^d8"" !breath!e8) |]"" (f8"" ^d8"" !breath!e8) |] %24
[M:4/4]""[Q:1/4=100]"^For five voices, a similar alteration\nof the ninth chord is possible.\n" (a4-"" a4 | %25
"" g4) x4 |]"" (_a4-"" a4 |"" g4) x4 |] %28
V:2
 (G4 ^G4 | A4) x4 |] (G4 ^G4 | A4) x4 |] (C4- C4 | C4) x4 |] (C4- C4 | E4) x4 |] %8
[M:3/1] (c8 B8 c8) |] (B8 c8 B8) |] (e8 ^d8 e8) |] (G8 G8 G8) |][M:4/4] (B4- B4 | c4) x4 |] %14
 (B4- B4 | c4) x4 |] (B4- B4 | B4) x4 |] (G4- G4 | G4) x4 |][M:3/1] (c8 B8 c8) |] (B8 B8 B8) |] %22
 (c8 B8 c8) |] (F8 F8 E8) |][M:4/4] (d4 ^d4 | e4) x4 |] (d4 ^d4 | e4) x4 |] %28
V:3
 (E4- E4 | F4) x4 |] (E4- E4 | E4) x4 |] (C4- C4 | C4) x4 |] (C4- C4 | B,4) x4 |] %8
[M:3/1] (G8 G8 G8) |] (E8 E8 E8) |] (G8 G8 G8) |] (G8 G8 G8) |][M:4/4] (F4- F4 | E4) x4 |] %14
 (G4- G4 | G4) x4 |] (G4- G4 | G4) x4 |] (F4- F4 | E4) x4 |][M:3/1] (G8 F8 E8) |] (G8 G8 G8) |] %22
 (A8 G8 G8) |] (C8 B,8 C8) |][M:4/4] (F4- F4 | E4) x4 |] (F4- F4 | E4) x4 |] %28
V:4
 (C4- C4 | F,4) x4 |] (C4- C4 | A,4) x4 |] (A,4 _A,4 | G,4) x4 |] (A,4 _A,4 | G,4) x4 |] %8
[M:3/1] (C8 G,8 C8) |] (G,8 _A,8 G,8) |] (C8 B,8 C8) |] (E8 ^D8 E8) |][M:4/4] (G,4- G,4 | C4) x4 |] %14
 (F,4- F,4 | E,4) x4 |] (F,4- F,4 | E,4) x4 |] (B,4- B,4 | C4) x4 |][M:3/1] (C8 G,8 C8) |] %21
 (E,8 F,8 E,8) |] (F,8 F,8 E,8) |] (A,8 G,8 C,8) |][M:4/4] (G,4- G,4 | C4) x4 |] (G,4- G,4 | %27
 C4) x4 |] %28
V:5
 x8 | x8 |] x8 | x8 |] x8 | x8 |] x8 | x8 |][M:3/1] x24 |] x24 |] x24 |] x24 |][M:4/4] x8 | x8 |] %14
 x8 | x8 |] x8 | x8 |] x8 | x8 |][M:3/1] x24 |] x24 |] x24 |] x24 |][M:4/4] (B4- B4 | c4) x4 |] %26
 (B4- B4 | c4) x4 |] %28

